!!!COM: Monteverdi, Claudio
!!!CDT: 1567/05/15/-1643/11/29/
!!!OTL: Viues in corde
!!!OTL2: Ahi come a un vago sol
!!!ONM: No. 20
!!!SMS: Musica tolta da i madrigali di Claudio Monteverdi, e d'altri autori, e fatta spirituale
!!!PPR: A. Coppini, ed.
!!!PPP: Milan
!!!PDT: 1607
!!!URL: http://www.jpj.dk/coppini.htm
!!!AIN: contrafacta
**kern	**kern	**kern	**kern	**kern
*staff5	*staff4	*staff3	*staff2	*staff1
*Ivox	*Ivox	*Ivox	*Ivox	*Ivox
!basso	!tenore	!alto	!quinto	!canto
*clefF4	*clefGv2	*clefGv2	*clefG2	*clefG2
*k[]	*k[]	*k[]	*k[]	*k[]
*M4/4	*M4/4	*M4/4	*M4/4	*M4/4
*MM120	*MM120	*MM120	*MM120	*MM120
=1-	=1-	=1-	=1-	=1-
[1D	1A	2r	1r	1r
.	.	[2d\	.	.
=2	=2	=2	=2	=2
2D\]	8F#/	2d\]	1r	1r
.	8F#/	.	.	.
.	8F#/	.	.	.
.	8E/	.	.	.
2GG/	8G/	8B\	.	.
.	8D/	8B\	.	.
.	8D/	8B\	.	.
.	8C/	8A/	.	.
=3	=3	=3	=3	=3
2C/	8.E/L	8c\	1r	1r
.	.	8G/	.	.
.	16F/Jk	.	.	.
.	4G/	8G/	.	.
.	.	8F/	.	.
2FF/	8.F/L	8.A/L	.	.
.	16G/Jk	16B/Jk	.	.
.	[4A/	[4c\	.	.
=4	=4	=4	=4	=4
2C/	16A/LL]	16c\LL]	1r	1r
.	16G/	16B\	.	.
.	16A/	16c\	.	.
.	16F/JJ	16A\JJ	.	.
.	16G/LL	16B-/LL	.	.
.	[16E/J	[16G/J	.	.
.	8E/J]	8G/J]	.	.
2FF/	16F/LL	16A/LL	.	.
.	16E/	16G/	.	.
.	16F/	16A/	.	.
.	[16D/JJ	[16F/JJ	.	.
.	4D/]	4F/]	.	.
=5	=5	=5	=5	=5
2C/	2E/	2G/	1r	1r
2AA/	8r	8r	.	.
.	8F#/	8A/	.	.
.	8.F#/	8.A/	.	.
.	16E/	16G#/	.	.
=6	=6	=6	=6	=6
2E\	2G#/	2B\	1r	1r
2E\	2G#/	2B\	.	.
=7	=7	=7	=7	=7
1AA	1r	4r	1r	1r
.	.	4A/	.	.
.	.	4c#\	.	.
.	.	8c#\	.	.
.	.	8B\	.	.
=8	=8	=8	=8	=8
1D	4r	4.d\	1r	1r
.	4D/	.	.	.
.	.	8d\	.	.
.	4F#/	8d\	.	.
.	.	8d\	.	.
.	8F#/	8c\	.	.
.	8E/	8c\	.	.
=9	=9	=9	=9	=9
1GG	4.G/	8.B\L	1r	1r
.	.	16c\Jk	.	.
.	.	[4d\	.	.
.	8G/	.	.	.
.	8G/	8.d\L]	.	.
.	8G/	.	.	.
.	.	16G\Jk	.	.
.	8F/	16A\LL	.	.
.	.	16B\	.	.
.	8F/	16c\	.	.
.	.	16d\JJ	.	.
=10	=10	=10	=10	=10
1C	8.E/L	[2e\	1r	1r
.	16F/Jk	.	.	.
.	[4G/	.	.	.
.	8.G/L]	8.e/L]	.	.
.	16C/Jk	16E/Jk	.	.
.	16D/LL	16F/LL	.	.
.	16E/	16G/	.	.
.	16F/	16A/	.	.
.	16G/JJ	16B/JJ	.	.
=11	=11	=11	=11	=11
2FF/	4.A/	4.c\	1r	1r
.	8F/	8A/	.	.
2C/	2E/	2G/	.	.
=12	=12	=12	=12	=12
2C/	2E/	2G/	1r	1r
[2F\	4r	4r	.	.
.	8F/	8A/	.	.
.	8F/	8A/	.	.
=13	=13	=13	=13	=13
2F\]	2.A/	2.c\	1r	1r
2A\	.	.	.	.
.	8G#/	8B\	.	.
.	8F#/	8A/	.	.
=14	=14	=14	=14	=14
2E\	2G#/	2B\	1r	1r
2E\	2G#/	2B\	.	.
=15	=15	=15	=15	=15
2C#/	8r	2r	1r	1r
.	8A/	.	.	.
.	16A/	.	.	.
.	16E/	.	.	.
.	16A/	.	.	.
.	16E/	.	.	.
2D\	2F#/	8r	.	.
.	.	8d\	.	.
.	.	16d\	.	.
.	.	16A/	.	.
.	.	16d\	.	.
.	.	16A/	.	.
=16	=16	=16	=16	=16
2GG/	8r	2B\	1r	1r
.	8G/	.	.	.
.	16G/	.	.	.
.	16D/	.	.	.
.	16G/	.	.	.
.	16D/	.	.	.
[2C/	2E/	4r	.	.
.	.	[4c\	.	.
=17	=17	=17	=17	=17
2C/]	2r	4c\]	1r	1r
.	.	8.B-\	.	.
.	.	16B-\	.	.
2FF/	4r	8A/	.	.
.	.	8A/	.	.
.	[4c\	[4A/	.	.
=18	=18	=18	=18	=18
2GG/	4c\]	4A/]	1r	1r
.	8.B-\	8.G/	.	.
.	16B-\	16G/	.	.
[2AA/	4.A/	4.F#/	.	.
.	8Bn\	8G/	.	.
=19	=19	=19	=19	=19
1AA_	[2c#\	4.A/	1r	1r
.	.	16G/LL	.	.
.	.	16F/JJ	.	.
.	8c#\L]	4E/	.	.
.	16B\L	.	.	.
.	16c#\JJ	.	.	.
.	[4d\	16F/LL	.	.
.	.	16E/	.	.
.	.	16F/	.	.
.	.	16D/JJ	.	.
=20	=20	=20	=20	=20
1AA_	8d\L]	4.E/	1r	1r
.	16c#\L	.	.	.
.	16d\JJ	.	.	.
.	[4e\	.	.	.
.	.	16F#/LL	.	.
.	.	16G/JJ	.	.
.	16e\LL]	[4A/	.	.
.	16d\	.	.	.
.	16c#\	.	.	.
.	16B\JJ	.	.	.
.	[4c#\	16A/LL]	.	.
.	.	16B/	.	.
.	.	16c#/	.	.
.	.	16A/JJ	.	.
=21	=21	=21	=21	=21
1AA_	16c#/LL]	4.d\	1r	1r
.	16B/	.	.	.
.	16A/	.	.	.
.	16G/JJ	.	.	.
.	4.A/	.	.	.
.	.	16c#\LL	.	.
.	.	16d\JJ	.	.
.	.	[4e\	.	.
.	16B\LL	.	.	.
.	16c#\JJ	.	.	.
.	[4F#/	16e\LL]	.	.
.	.	16A\	.	.
.	.	16B\	.	.
.	.	16c#\JJ	.	.
=22	=22	=22	=22	=22
1AA]	8F#/L]	[2d\	1r	1r
.	16G/L	.	.	.
.	16A/JJ	.	.	.
.	[4D/	.	.	.
.	16D/LL]	16d\LL]	.	.
.	16E/	16c\	.	.
.	16F/	16d\	.	.
.	16D/JJ	16B\JJ	.	.
.	4E/	4c\	.	.
=23	=23	=23	=23	=23
1D	1D	1d	1r	1r
=24	=24	=24	=24	=24
1F	1r	1r	1f	1a
=25	=25	=25	=25	=25
4C/	1r	1r	4e/	4g/
4.C/	.	.	4.e/	4.g/
8C/	.	.	8e/	8g/
4BB-/	.	.	4d/	4f/
=26	=26	=26	=26	=26
1AA	1r	1r	1c#	1e
=27	=27	=27	=27	=27
1FF	1r	1r	4.f/	4.a/
.	.	.	8g/	8b\
.	.	.	2a/	2cc\
=28	=28	=28	=28	=28
4C/	1r	1r	4e/	4g/
4.C/	.	.	4.e/	4.g/
8C/	.	.	8e/	8g/
4D\	.	.	4d/	4f/
=29	=29	=29	=29	=29
1AA	1r	1r	2c/	2e/
.	.	.	[2A/	[2c/
=30	=30	=30	=30	=30
2FF/	1r	1r	2A/]	4c/]
.	.	.	.	2d/
4GG/	.	.	2B/	.
4GG/	.	.	.	4e/
=31	=31	=31	=31	=31
1AA	1r	1r	4c#/	1e
.	.	.	2d/	.
.	.	.	4c#/	.
=32	=32	=32	=32	=32
1D	1r	1r	1d	1d
=33	=33	=33	=33	=33
[1D	2r	4r	1r	1r
.	.	2d\	.	.
.	[2D/	.	.	.
.	.	16c/LL	.	.
.	.	16B/	.	.
.	.	16A/	.	.
.	.	16G/JJ	.	.
=34	=34	=34	=34	=34
1D]	4D/]	4F#/	1r	1r
.	16E/LL	2G/	.	.
.	16F#/	.	.	.
.	16G/	.	.	.
.	16A/JJ	.	.	.
.	8B-\	.	.	.
.	4.A/	.	.	.
.	.	4F#/	.	.
=35	=35	=35	=35	=35
4G\	1B	2G/	1r	1r
4F#\	.	.	.	.
2E\	.	2G#/	.	.
=36	=36	=36	=36	=36
2E\	4B\	2r	1r	1r
.	8B\	.	.	.
.	8B\	.	.	.
2D\	[2d\	4B\	.	.
.	.	8B\	.	.
.	.	8B\	.	.
=37	=37	=37	=37	=37
2F\	2.d\]	2d\	1r	1r
[2E\	.	4G#/	.	.
.	4c\	[4A/	.	.
=38	=38	=38	=38	=38
2E\]	4.B\	4A/]	1r	1r
.	.	4G#/	.	.
.	8B\	.	.	.
2AA/	2A/	2A/	.	.
=39	=39	=39	=39	=39
1AA	4r	4r	1r	1r
.	4A/	4c\	.	.
.	4A/	4c\	.	.
.	16A/	16c\	.	.
.	16A/	16c\	.	.
.	16G/	16B\	.	.
.	16G/	16B\	.	.
=40	=40	=40	=40	=40
1AA	4F/	4A/	1r	1r
.	4F/	4A/	.	.
.	8F/	8A/	.	.
.	8F/	8A/	.	.
.	8.E/	8.G/	.	.
.	16D/	16F#/	.	.
=41	=41	=41	=41	=41
1D	2D/	2F#/	1r	1r
.	2D/	4F#/	.	.
.	.	8F#/	.	.
.	.	8F#/	.	.
=42	=42	=42	=42	=42
2GG/	2r	16G/LL	1r	1r
.	.	16A/	.	.
.	.	16B/	.	.
.	.	16G/JJ	.	.
.	.	4.d\	.	.
2D\	4r	.	.	.
.	.	16c\LL	.	.
.	.	16B\JJ	.	.
.	8F#/	16c/LL	.	.
.	.	16A/J	.	.
.	8F#/	8A/J	.	.
=43	=43	=43	=43	=43
2GG/	16G/LL	4B\	1r	1r
.	16A/	.	.	.
.	16B/	.	.	.
.	16G/JJ	.	.	.
.	4.d\	8A/	.	.
.	.	8G/	.	.
2D\	.	8.A/L	.	.
.	16c\LL	.	.	.
.	16B\JJ	16G/Jk	.	.
.	16c/LL	16A/LL	.	.
.	16A/J	16F#/J	.	.
.	8A/J	8F#/J	.	.
=44	=44	=44	=44	=44
2GG/	4B\	16G/LL	1r	1r
.	.	16F#/	.	.
.	.	16G/	.	.
.	.	[16E/JJ	.	.
.	8A/	16E/LL]	.	.
.	.	16F#/	.	.
.	8G/	16G/	.	.
.	.	16E/JJ	.	.
2D\	2A/	8F#/	.	.
.	.	4G/	.	.
.	.	8F#/	.	.
=45	=45	=45	=45	=45
1GG	1G	1G	1r	1r
=46	=46	=46	=46	=46
1C	1r	1r	1cc	1ee
=47	=47	=47	=47	=47
4G\	1r	1r	4b\	4dd\
4.G\	.	.	4.b\	4.dd\
8G\	.	.	8b\	8dd\
4A\	.	.	4a/	4cc\
=48	=48	=48	=48	=48
1E	1r	1r	2g/	2b\
.	.	.	[2e/	[2g/
=49	=49	=49	=49	=49
2C/	1r	1r	2e/]	4g/]
.	.	.	.	2a/
4D\	.	.	2f#/	.
4D\	.	.	.	4b\
=50	=50	=50	=50	=50
1E	1r	1r	4g#/	1b
.	.	.	2a/	.
.	.	.	4g#/	.
=51	=51	=51	=51	=51
1AA	1r	1r	1a	1a
=52	=52	=52	=52	=52
1D	4r	4r	1r	1r
.	4F/	4A/	.	.
.	8F/	8A/	.	.
.	8F/	8A/	.	.
.	8F/	8A/	.	.
.	8F/	8A/	.	.
=53	=53	=53	=53	=53
2AA/	2E/	[2c\	1r	1r
2D\	8r	8c\]	.	.
.	8F#/	8A/	.	.
.	8F#/	8A/	.	.
.	8F#/	8A/	.	.
=54	=54	=54	=54	=54
1GG	4.G/	4.B-\	1r	1r
.	8F#/	8A/	.	.
.	16G/LL	16B-\LL	.	.
.	16F#/	16A\	.	.
.	16G/	16B-\	.	.
.	[16E/JJ	[16c\JJ	.	.
.	4E/]	4c\]	.	.
=55	=55	=55	=55	=55
1D	1F#	1A	1r	1r
=56	=56	=56	=56	=56
1FF	1A	1c	1r	1r
=57	=57	=57	=57	=57
4C/	4E/	4G/	1r	1r
4.C/	4.E/	4.G/	.	.
8C/	8E/	8G/	.	.
4D\	4D/	4F/	.	.
=58	=58	=58	=58	=58
1AA	1C#	1E	1r	1r
=59	=59	=59	=59	=59
2FF/	2.F/	2.A/	1r	1r
2GG/	.	.	.	.
.	[4E/	[4G/	.	.
=60	=60	=60	=60	=60
1AA	4E/]	4G/]	1r	1r
.	4D/	4F/	.	.
.	2C#/	2E/	.	.
=61	=61	=61	=61	=61
1D	1D	1D	1r	1r
=62	=62	=62	=62	=62
1FF	1F	1c	1a	1cc
=63	=63	=63	=63	=63
4C/	4G/	4c\	4e/	4g/
4.C/	4.G/	4.c\	4.e/	4.g/
8C/	8G/	8c\	8e/	8g/
4D\	4D/	4A/	4d/	4f/
=64	=64	=64	=64	=64
1AA	1E	1A	1c	1e
=65	=65	=65	=65	=65
1FF	1r	1A	1cc	1a
=66	=66	=66	=66	=66
2GG/	1r	2B\	4g/	4e/
.	.	.	4.g/	4.e/
2GG/	.	2B\	.	.
.	.	.	8g/	8e/
.	.	.	4f/	4d/
=67	=67	=67	=67	=67
2AA/	2r	2c\	4e/	4c/
.	.	.	2.ee\	2.cc\
4AA/	2c\	2c\	.	.
4AA/	.	.	.	.
=68	=68	=68	=68	=68
2BB/	2d\	1r	4b\	4g/
.	.	.	4.b\	4.g/
2BB/	2d\	.	.	.
.	.	.	8b\	8g/
.	.	.	4a/	4f/
=69	=69	=69	=69	=69
2C/	2e\	2r	4g/	4e/
.	.	.	2.gg\	2.ee\
4C/	2e\	2E/	.	.
4C/	.	.	.	.
=70	=70	=70	=70	=70
2D\	1r	2F#/	4dd\	4b\
.	.	.	4.dd\	4.b\
2D\	.	2F#/	.	.
.	.	.	8dd\	8b\
.	.	.	4cc\	4a/
=71	=71	=71	=71	=71
[1E	1B	4G#/	2b\	2g#/
.	.	4G#/	.	.
.	.	2B\	2g#/	2e/
=72	=72	=72	=72	=72
1E]	4A/	4c\	4a/	8f#/
.	.	.	.	8g#/
.	4A/	4c\	4a/	2a/
.	2E/	2e\	2b\	.
.	.	.	.	4g#/
=73	=73	=73	=73	=73
1AA	1E	1c#	1a	1a
=74	=74	=74	=74	=74
1D	4r	4r	1r	1r
.	4D/	4F#/	.	.
.	8A/	8F#/	.	.
.	8A/	8F#/	.	.
.	8A/	8F#/	.	.
.	8A/	8F#/	.	.
=75	=75	=75	=75	=75
2AA/	[2c\	[2A/	1r	1r
2D\	8c\]	8A/]	.	.
.	8A/	8F#/	.	.
.	8A/	8F#/	.	.
.	8A/	8F#/	.	.
=76	=76	=76	=76	=76
1GG	1B-	1G	1r	1r
=77	=77	=77	=77	=77
1D	1A	2F#/	1r	1r
.	.	2r	.	.
=78	=78	=78	=78	=78
1F	1F	1c	1a	1f
=79	=79	=79	=79	=79
4C/	4G/	4c\	4e/	4cc\
4.C/	4.G/	4.c\	4.e/	4.cc\
8C/	8G/	8c\	8e/	8cc\
4BB-/	4G/	4G/	4d/	4dd\
=80	=80	=80	=80	=80
1AA	1E	1A	1c#	1a
=81	=81	=81	=81	=81
1FF	4.F/	4.A/	1a	1cc
.	8G/	8B\	.	.
.	2A/	2c\	.	.
=82	=82	=82	=82	=82
4C/	4c\	4c\	4e/	4g/
4.C/	4.G/	4.c\	4.e/	4.g/
8C/	8G/	8c\	8e/	8g/
4D\	4D/	4A/	4d/	4f/
=83	=83	=83	=83	=83
1AA	1E	2A/	2c#/	1e
.	.	[2c\	2r	.
=84	=84	=84	=84	=84
1FF	1c	2c\]	1r	1a
.	.	2d\	.	.
=85	=85	=85	=85	=85
2GG/	2B\	2d\	1r	2b\
2GG/	2B\	2e\	.	2b\
=86	=86	=86	=86	=86
[1AA	1A	2e\	2r	4cc\
.	.	.	.	4cc\
.	.	[2a\	[2dd\	[2ff\
=87	=87	=87	=87	=87
1AA_	1A	2a\]	2dd\]	2ff\]
.	.	4e\	4a/	4cc\
.	.	[4e\	[4a/	[4cc\
=88	=88	=88	=88	=88
1AA_	1r	8e\]	8a/]	8cc\]
.	.	8e\	8a/	8cc\
.	.	4d\	4f/	4b\
.	.	2c#\	2e/	2a/
=89	=89	=89	=89	=89
1AA_	2c#\	2A/	2c#/	2f#/
.	4B\	4B\	4d/	4g/
.	4B\	4B\	4d/	4g/
=90	=90	=90	=90	=90
1AA]	1A	4c#\	1e	1a
.	.	2d\	.	.
.	.	4c#\	.	.
=91	=91	=91	=91	=91
1D;	1A;	1d;	1d;	1f#;
==	==	==	==	==
*-	*-	*-	*-	*-
!!!ENC: Craig Stuart Sapp
!!!END: 2004/12/10/
